src/assets/alreadyUsed.svg

<svg width="52" height="52" viewBox="0 0 52 52" fill="none" xmlns="http://www.w3.org/2000/svg">
<g filter="url(#filter0_d_3598_705)">
<rect x="2" y="1" width="48" height="48" rx="10" fill="white"/>
<rect x="2.5" y="1.5" width="47" height="47" rx="9.5" stroke="#EAECF0"/>
<path d="M23 22V19C23 17.3431 21.6569 16 20 16C18.3431 16 17 17.3431 17 19C17 20.6569 18.3431 22 20 22H23ZM23 22V28M23 22H29M23 28V31C23 32.6569 21.6569 34 20 34C18.3431 34 17 32.6569 17 31C17 29.3431 18.3431 28 20 28H23ZM23 28H29M29 28H32C33.6569 28 35 29.3431 35 31C35 32.6569 33.6569 34 32 34C30.3431 34 29 32.6569 29 31V28ZM29 28V22M29 22V19C29 17.3431 30.3431 16 32 16C33.6569 16 35 17.3431 35 19C35 20.6569 33.6569 22 32 22H29Z" stroke="#344054" stroke-width="2" stroke-linecap="round" stroke-linejoin="round"/>
</g>
<defs>
<filter id="filter0_d_3598_705" x="0" y="0" width="52" height="52" filterUnits="userSpaceOnUse" color-interpolation-filters="sRGB">
<feFlood flood-opacity="0" result="BackgroundImageFix"/>
<feColorMatrix in="SourceAlpha" type="matrix" values="0 0 0 0 0 0 0 0 0 0 0 0 0 0 0 0 0 0 127 0" result="hardAlpha"/>
<feOffset dy="1"/>
<feGaussianBlur stdDeviation="1"/>
<feColorMatrix type="matrix" values="0 0 0 0 0.0627451 0 0 0 0 0.0941176 0 0 0 0 0.156863 0 0 0 0.05 0"/>
<feBlend mode="normal" in2="BackgroundImageFix" result="effect1_dropShadow_3598_705"/>
<feBlend mode="normal" in="SourceGraphic" in2="effect1_dropShadow_3598_705" result="shape"/>
</filter>
</defs>
</svg>

<svg xmlns="http://www.w3.org/2000/svg" width="52" height="52" fill="none"><g filter="url(#a)"><rect width="48" height="48" x="2" y="1" fill="#fff" rx="10"/><rect width="47" height="47" x="2.5" y="1.5" stroke="#EAECF0" rx="9.5"/><path stroke="#344054" stroke-linecap="round" stroke-linejoin="round" stroke-width="2" d="M23 22v-3a3 3 0 1 0-3 3zm0 0v6m0-6h6m-6 6v3a3 3 0 1 1-3-3zm0 0h6m0 0h3a3 3 0 1 1-3 3zm0 0v-6m0 0v-3a3 3 0 1 1 3 3z"/></g><defs><filter id="a" width="52" height="52" x="0" y="0" color-interpolation-filters="sRGB" filterUnits="userSpaceOnUse"><feFlood flood-opacity="0" result="BackgroundImageFix"/><feColorMatrix in="SourceAlpha" result="hardAlpha" values="0 0 0 0 0 0 0 0 0 0 0 0 0 0 0 0 0 0 127 0"/><feOffset dy="1"/><feGaussianBlur stdDeviation="1"/><feColorMatrix values="0 0 0 0 0.0627451 0 0 0 0 0.0941176 0 0 0 0 0.156863 0 0 0 0.05 0"/><feBlend in2="BackgroundImageFix" result="effect1_dropShadow_3598_705"/><feBlend in="SourceGraphic" in2="effect1_dropShadow_3598_705" result="shape"/></filter></defs></svg>
